; generated by Slic3r 1.2.9 on 2015-11-24 at 22:02:21

; external perimeters extrusion width = 0.40mm
; perimeters extrusion width = 0.48mm
; infill extrusion width = 0.48mm
; solid infill extrusion width = 0.48mm
; top infill extrusion width = 0.48mm

M104 S220 ; set temperature
G28 ; home all axes
G1 Z50 F5000 ; lift nozzle

M109 S220 ; wait for temperature to be reached
G21 ; set units to millimeters
G90 ; use absolute coordinates
M82 ; use absolute distances for extrusion
G92 E0
G1 Z0.200 F9000.000
G1 E-4.50000 F5400.00000
G92 E0
G1 X18.179 Y10.896 F9000.000
G1 E4.50000 F5400.00000
M204 S100
G1 X17.763 Y11.591 E4.53605 F3000.000
G1 X17.506 Y11.975 E4.55664
G1 X16.541 Y13.276 E4.62875
G1 X16.248 Y13.633 E4.64936
G1 X15.160 Y14.833 E4.72148
G1 X14.833 Y15.160 E4.74209
G1 X13.633 Y16.248 E4.81421
G1 X13.276 Y16.541 E4.83482
G1 X11.975 Y17.506 E4.90693
G1 X11.591 Y17.763 E4.92752
G1 X10.202 Y18.595 E4.99964
G1 X9.794 Y18.813 E5.02025
G1 X8.330 Y19.506 E5.09236
G1 X7.902 Y19.683 E5.11297
G1 X6.378 Y20.228 E5.18508
G1 X5.935 Y20.362 E5.20568
G1 X4.365 Y20.756 E5.27780
G1 X3.910 Y20.846 E5.29842
G1 X2.309 Y21.084 E5.37053
G1 X1.849 Y21.129 E5.39112
G1 X0.231 Y21.208 E5.46324
G1 X-0.231 Y21.208 E5.48385
G1 X-1.849 Y21.129 E5.55597
G1 X-2.309 Y21.084 E5.57655
G1 X-3.910 Y20.846 E5.64867
G1 X-4.365 Y20.756 E5.66929
G1 X-5.935 Y20.362 E5.74141
G1 X-6.378 Y20.228 E5.76200
G1 X-7.902 Y19.683 E5.83412
G1 X-8.330 Y19.506 E5.85472
G1 X-9.794 Y18.813 E5.92684
G1 X-10.202 Y18.595 E5.94745
G1 X-11.591 Y17.763 E6.01957
G1 X-11.975 Y17.506 E6.04015
G1 X-13.276 Y16.541 E6.11227
G1 X-13.633 Y16.248 E6.13288
G1 X-14.833 Y15.160 E6.20499
G1 X-15.160 Y14.833 E6.22561
G1 X-16.248 Y13.633 E6.29772
G1 X-16.541 Y13.276 E6.31833
G1 X-17.506 Y11.975 E6.39045
G1 X-17.763 Y11.591 E6.41104
G1 X-18.595 Y10.202 E6.48316
G1 X-18.813 Y9.794 E6.50376
G1 X-19.506 Y8.330 E6.57587
G1 X-19.683 Y7.902 E6.59648
G1 X-20.228 Y6.378 E6.66860
G1 X-20.362 Y5.935 E6.68919
G1 X-20.756 Y4.365 E6.76131
G1 X-20.846 Y3.911 E6.78193
G1 X-21.084 Y2.309 E6.85405
G1 X-21.129 Y1.849 E6.87463
G1 X-21.208 Y0.231 E6.94675
G1 X-21.208 Y-0.231 E6.96737
G1 X-21.129 Y-1.849 E7.03948
G1 X-21.084 Y-2.309 E7.06007
G1 X-20.846 Y-3.911 E7.13219
G1 X-20.756 Y-4.365 E7.15281
G1 X-20.362 Y-5.935 E7.22492
G1 X-20.228 Y-6.378 E7.24552
G1 X-19.683 Y-7.902 E7.31763
G1 X-19.506 Y-8.330 E7.33824
G1 X-18.813 Y-9.794 E7.41036
G1 X-18.595 Y-10.202 E7.43096
G1 X-17.763 Y-11.591 E7.50308
G1 X-17.506 Y-11.975 E7.52367
G1 X-16.541 Y-13.276 E7.59578
G1 X-16.248 Y-13.633 E7.61639
G1 X-15.160 Y-14.833 E7.68851
G1 X-14.833 Y-15.160 E7.70912
G1 X-13.670 Y-16.214 E7.77902
G1 X-13.276 Y-16.541 E7.80184
G1 X-11.975 Y-17.506 E7.87396
G1 X-11.591 Y-17.763 E7.89455
G1 X-10.202 Y-18.595 E7.96667
G1 X-9.794 Y-18.813 E7.98727
G1 X-8.330 Y-19.506 E8.05939
G1 X-7.902 Y-19.683 E8.07999
G1 X-6.378 Y-20.228 E8.15211
G1 X-5.935 Y-20.362 E8.17270
G1 X-4.365 Y-20.756 E8.24482
G1 X-3.910 Y-20.846 E8.26544
G1 X-2.309 Y-21.084 E8.33756
G1 X-1.849 Y-21.129 E8.35814
G1 X-0.231 Y-21.208 E8.43026
G1 X0.231 Y-21.208 E8.45088
G1 X1.849 Y-21.129 E8.52300 F3000.000
G1 X2.309 Y-21.084 E8.54358
G1 X3.911 Y-20.846 E8.61570
G1 X4.365 Y-20.756 E8.63632
G1 X5.935 Y-20.362 E8.70843
G1 X6.378 Y-20.228 E8.72903
G1 X7.902 Y-19.683 E8.80115
G1 X8.330 Y-19.506 E8.82175
G1 X9.794 Y-18.813 E8.89387
G1 X10.202 Y-18.595 E8.91447
G1 X11.591 Y-17.763 E8.98659
G1 X11.975 Y-17.506 E9.00718
G1 X13.276 Y-16.541 E9.07930
G1 X13.633 Y-16.248 E9.09990
G1 X14.833 Y-15.160 E9.17202
G1 X15.160 Y-14.833 E9.19263
G1 X16.248 Y-13.633 E9.26475
G1 X16.541 Y-13.276 E9.28536
G1 X17.506 Y-11.975 E9.35747
G1 X17.763 Y-11.591 E9.37806
G1 X18.595 Y-10.202 E9.45018
G1 X18.813 Y-9.794 E9.47079
G1 X19.506 Y-8.330 E9.54290
G1 X19.683 Y-7.902 E9.56351
G1 X20.228 Y-6.378 E9.63563
G1 X20.362 Y-5.935 E9.65622
G1 X20.756 Y-4.365 E9.72833
G1 X20.846 Y-3.910 E9.74896
G1 X21.084 Y-2.309 E9.82107
G1 X21.129 Y-1.849 E9.84166
G1 X21.208 Y-0.231 E9.91377
G1 X21.208 Y0.231 E9.93439
G1 X21.129 Y1.849 E10.00651
G1 X21.084 Y2.309 E10.02709
G1 X20.846 Y3.910 E10.09921
G1 X20.756 Y4.365 E10.11983
G1 X20.362 Y5.935 E10.19195
G1 X20.228 Y6.378 E10.21254
G1 X19.683 Y7.902 E10.28466
G1 X19.506 Y8.330 E10.30527
G1 X18.813 Y9.794 E10.37738
G1 X18.595 Y10.202 E10.39798
G1 X18.210 Y10.845 E10.43138
M204 S600
G1 X17.903 Y10.661 F9000.000
M204 S100
G1 X17.456 Y11.407 E10.47010 F3000.000
G1 X17.219 Y11.762 E10.48913
G1 X16.254 Y13.063 E10.56125
G1 X15.983 Y13.393 E10.58029
G1 X14.896 Y14.593 E10.65241
G1 X14.593 Y14.896 E10.67146
G1 X13.393 Y15.983 E10.74358
G1 X13.063 Y16.254 E10.76263
G1 X11.762 Y17.219 E10.83474
G1 X11.407 Y17.456 E10.85377
G1 X10.018 Y18.289 E10.92589
G1 X9.641 Y18.490 E10.94494
G1 X8.177 Y19.183 E11.01705
G1 X7.782 Y19.346 E11.03610
G1 X6.258 Y19.892 E11.10821
G1 X5.849 Y20.016 E11.12725
G1 X4.278 Y20.409 E11.19936
G1 X3.858 Y20.493 E11.21842
G1 X2.256 Y20.730 E11.29054
G1 X1.831 Y20.772 E11.30957
G1 X0.214 Y20.852 E11.38168
G1 X-0.214 Y20.852 E11.40074
G1 X-1.831 Y20.772 E11.47285
G1 X-2.256 Y20.730 E11.49188
G1 X-3.858 Y20.493 E11.56400
G1 X-4.278 Y20.409 E11.58306
G1 X-5.849 Y20.016 E11.65517
G1 X-6.257 Y19.892 E11.67420
G1 X-7.782 Y19.346 E11.74632
G1 X-8.177 Y19.183 E11.76537
G1 X-9.641 Y18.490 E11.83748
G1 X-10.018 Y18.289 E11.85653
G1 X-11.407 Y17.456 E11.92865
G1 X-11.762 Y17.219 E11.94767
G1 X-13.063 Y16.254 E12.01979
G1 X-13.393 Y15.983 E12.03884
G1 X-14.593 Y14.896 E12.11096
G1 X-14.896 Y14.593 E12.13001
G1 X-15.983 Y13.393 E12.20212
G1 X-16.254 Y13.063 E12.22117
G1 X-17.219 Y11.762 E12.29329
G1 X-17.456 Y11.407 E12.31232
G1 X-18.289 Y10.018 E12.38444
G1 X-18.490 Y9.641 E12.40347
G1 X-19.183 Y8.177 E12.47559
G1 X-19.346 Y7.782 E12.49464
G1 X-19.892 Y6.258 E12.56676
G1 X-20.016 Y5.849 E12.58579
G1 X-20.409 Y4.278 E12.65791
G1 X-20.493 Y3.858 E12.67696
G1 X-20.730 Y2.256 E12.74908
G1 X-20.772 Y1.831 E12.76811
G1 X-20.852 Y0.214 E12.84023
G1 X-20.852 Y-0.214 E12.85928
G1 X-20.772 Y-1.831 E12.93140
G1 X-20.730 Y-2.256 E12.95042
G1 X-20.493 Y-3.858 E13.02254
G1 X-20.409 Y-4.278 E13.04160
G1 X-20.016 Y-5.849 E13.11372
G1 X-19.892 Y-6.258 E13.13275
G1 X-19.346 Y-7.782 E13.20487
G1 X-19.183 Y-8.177 E13.22391
G1 X-18.490 Y-9.641 E13.29603
G1 X-18.289 Y-10.018 E13.31507
G1 X-17.456 Y-11.407 E13.38719
G1 X-17.219 Y-11.762 E13.40622
G1 X-16.254 Y-13.063 E13.47833
G1 X-15.983 Y-13.393 E13.49738
G1 X-14.896 Y-14.593 E13.56950
G1 X-14.593 Y-14.896 E13.58855
G1 X-13.430 Y-15.950 E13.65845
G1 X-13.063 Y-16.254 E13.67971
G1 X-11.762 Y-17.219 E13.75183
G1 X-11.407 Y-17.456 E13.77086
G1 X-10.018 Y-18.289 E13.84297
G1 X-9.641 Y-18.490 E13.86202
G1 X-8.177 Y-19.183 E13.93414
G1 X-7.782 Y-19.346 E13.95318
G1 X-6.258 Y-19.892 E14.02530
G1 X-5.849 Y-20.016 E14.04433
G1 X-4.326 Y-20.397 E14.11423
G1 X-3.858 Y-20.493 E14.13551
G1 X-2.256 Y-20.730 E14.20762
G1 X-1.831 Y-20.772 E14.22665
G1 X-0.214 Y-20.852 E14.29876
G1 X0.214 Y-20.852 E14.31782
G1 X1.831 Y-20.772 E14.38994 F3000.000
G1 X2.256 Y-20.730 E14.40896
G1 X3.858 Y-20.493 E14.48108
G1 X4.278 Y-20.409 E14.50014
G1 X5.849 Y-20.016 E14.57225
G1 X6.258 Y-19.892 E14.59129
G1 X7.782 Y-19.346 E14.66341
G1 X8.177 Y-19.183 E14.68245
G1 X9.641 Y-18.490 E14.75457
G1 X10.018 Y-18.289 E14.77361
G1 X11.407 Y-17.456 E14.84573
G1 X11.762 Y-17.219 E14.86476
G1 X13.063 Y-16.254 E14.93687
G1 X13.393 Y-15.983 E14.95592
G1 X14.593 Y-14.896 E15.02804
G1 X14.896 Y-14.593 E15.04709
G1 X15.983 Y-13.393 E15.11921
G1 X16.254 Y-13.063 E15.13825
G1 X17.219 Y-11.762 E15.21037
G1 X17.456 Y-11.407 E15.22940
G1 X18.289 Y-10.018 E15.30152
G1 X18.490 Y-9.641 E15.32056
G1 X19.183 Y-8.177 E15.39267
G1 X19.346 Y-7.782 E15.41172
G1 X19.892 Y-6.257 E15.48384
G1 X20.016 Y-5.849 E15.50287
G1 X20.409 Y-4.278 E15.57499
G1 X20.493 Y-3.858 E15.59405
G1 X20.730 Y-2.256 E15.66616
G1 X20.772 Y-1.831 E15.68519
G1 X20.852 Y-0.214 E15.75731
G1 X20.852 Y0.214 E15.77636
G1 X20.772 Y1.831 E15.84848
G1 X20.730 Y2.256 E15.86751
G1 X20.493 Y3.858 E15.93962
G1 X20.409 Y4.278 E15.95868
G1 X20.016 Y5.849 E16.03080
G1 X19.892 Y6.258 E16.04983
G1 X19.346 Y7.782 E16.12195
G1 X19.183 Y8.177 E16.14100
G1 X18.490 Y9.641 E16.21311
G1 X18.289 Y10.018 E16.23215
G1 X17.934 Y10.610 E16.26288
M204 S600
G1 F7200
G1 X17.456 Y11.407 E15.60067
G1 F7200
G1 X17.219 Y11.762 E15.29621
G1 F7200
G1 X16.254 Y13.063 E14.14251
G1 F7200
G1 X15.983 Y13.393 E13.83784
G1 F7200
G1 X14.896 Y14.593 E12.68407
G1 F7200
G1 X14.593 Y14.896 E12.37930
G1 F7200
G1 X14.186 Y15.265 E11.98788
G1 E11.76288 F5400.00000
G92 E0
G1 X5.372 Y3.357 F9000.000
G1 E4.50000 F5400.00000
M204 S100
G1 X4.924 Y4.132 E4.53987 F3000.000
G1 X3.214 Y5.567 E4.63929
G1 X1.116 Y6.331 E4.73872
G1 X-1.116 Y6.331 E4.83815
G1 X-3.214 Y5.567 E4.93758
G1 X-4.924 Y4.132 E5.03701
G1 X-6.041 Y2.199 E5.13644
G1 X-6.428 Y-0.000 E5.23587
G1 X-6.041 Y-2.199 E5.33530
G1 X-4.924 Y-4.132 E5.43473
G1 X-3.214 Y-5.567 E5.53415
G1 X-1.116 Y-6.331 E5.63358
G1 X1.116 Y-6.331 E5.73301 F3000.000
G1 X3.214 Y-5.567 E5.83244
G1 X4.924 Y-4.132 E5.93187
G1 X6.041 Y-2.199 E6.03130
G1 X6.428 Y-0.000 E6.13073
G1 X6.041 Y2.199 E6.23016
G1 X5.402 Y3.305 E6.28705
M204 S600
G1 X5.093 Y3.126 F9000.000
M204 S100
G1 X4.647 Y3.899 E6.32678 F3000.000
G1 X3.033 Y5.253 E6.42060
G1 X1.053 Y5.973 E6.51442
G1 X-1.053 Y5.973 E6.60824
G1 X-3.033 Y5.253 E6.70206
G1 X-4.647 Y3.899 E6.79588
G1 X-5.700 Y2.075 E6.88971
G1 X-6.066 Y-0.000 E6.98353
G1 X-5.700 Y-2.075 E7.07735
G1 X-4.647 Y-3.899 E7.17117
G1 X-3.033 Y-5.253 E7.26499
G1 X-1.053 Y-5.973 E7.35881
G1 X1.053 Y-5.973 E7.45263 F3000.000
G1 X3.033 Y-5.253 E7.54645
G1 X4.647 Y-3.899 E7.64027
G1 X5.700 Y-2.075 E7.73409
G1 X6.066 Y-0.000 E7.82791
G1 X5.700 Y2.075 E7.92173
G1 X5.123 Y3.074 E7.97315
M204 S600
G1 X4.813 Y2.896 F9000.000
M204 S100
G1 X4.369 Y3.666 E8.01275 F3000.000
G1 X2.852 Y4.939 E8.10096
G1 X0.990 Y5.616 E8.18917
G1 X-0.990 Y5.616 E8.27738
G1 X-2.852 Y4.939 E8.36560
G1 X-4.369 Y3.666 E8.45381
G1 X-5.359 Y1.951 E8.54202
G1 X-5.703 Y-0.000 E8.63023
G1 X-5.359 Y-1.951 E8.71845
G1 X-4.369 Y-3.666 E8.80666
G1 X-2.852 Y-4.939 E8.89487
G1 X-0.990 Y-5.616 E8.98308
G1 X0.990 Y-5.616 E9.07129 F3000.000
G1 X2.852 Y-4.939 E9.15951
G1 X4.369 Y-3.666 E9.24772
G1 X5.359 Y-1.951 E9.33593
G1 X5.703 Y0.000 E9.42414
G1 X5.359 Y1.951 E9.51236
G1 X4.843 Y2.844 E9.55829
M204 S600
G1 X5.013 Y3.242 F9000.000
G1 F7200
G1 X4.369 Y3.666 E8.88200
G1 F7200
G1 X2.852 Y4.939 E7.47078
G1 F7200
G1 X0.990 Y5.616 E6.05956
G1 F7200
G1 X-0.099 Y5.616 E5.28329
G1 E5.05829 F5400.00000
G92 E0
G1 X-6.163 Y2.001 F9000.000
G1 X-10.608 Y2.785 F9000.000
G1 X-10.918 Y1.075 F9000.000
G1 X-15.424 Y1.519 F9000.000
G1 X-15.571 Y0.281 F9000.000
G1 E4.50000 F5400.00000
M204 S100
G1 X-15.585 Y0.000 E4.51252 F3000.000
G1 X-15.510 Y-1.528 E4.58064
G1 X-15.285 Y-3.040 E4.64875
G1 X-14.914 Y-4.524 E4.71687
G1 X-14.398 Y-5.964 E4.78498
G1 X-13.745 Y-7.347 E4.85309
G1 X-12.958 Y-8.658 E4.92121
G1 X-12.047 Y-9.887 E4.98933
G1 X-11.020 Y-11.020 E5.05744
G1 X-9.887 Y-12.047 E5.12556
G1 X-8.658 Y-12.958 E5.19367
G1 X-7.347 Y-13.745 E5.26179
G1 X-5.964 Y-14.398 E5.32990
G1 X-4.524 Y-14.914 E5.39802
G1 X-3.040 Y-15.285 E5.46613
G1 X-1.528 Y-15.510 E5.53425
G1 X-0.000 Y-15.585 E5.60237
G1 X1.479 Y-15.512 E5.66832
G1 X3.042 Y-15.285 E5.73865 F3000.000
G1 X4.524 Y-14.914 E5.80670
G1 X5.964 Y-14.398 E5.87482
G1 X7.347 Y-13.745 E5.94293
G1 X8.658 Y-12.958 E6.01105
G1 X9.887 Y-12.047 E6.07916
G1 X11.020 Y-11.020 E6.14728
G1 X12.047 Y-9.887 E6.21539
G1 X12.958 Y-8.658 E6.28351
G1 X13.745 Y-7.347 E6.35163
G1 X14.398 Y-5.964 E6.41974
G1 X14.914 Y-4.524 E6.48786
G1 X15.285 Y-3.040 E6.55597
G1 X15.510 Y-1.528 E6.62408
G1 X15.585 Y-0.000 E6.69220
G1 X15.510 Y1.528 E6.76032
G1 X15.285 Y3.040 E6.82843
G1 X14.914 Y4.524 E6.89655
G1 X14.398 Y5.964 E6.96466
G1 X13.745 Y7.347 E7.03278
G1 X12.958 Y8.658 E7.10090
G1 X12.047 Y9.887 E7.16901
G1 X11.020 Y11.020 E7.23712
G1 X9.887 Y12.047 E7.30524
G1 X8.658 Y12.958 E7.37335
G1 X7.347 Y13.745 E7.44147
G1 X5.964 Y14.398 E7.50959
G1 X4.524 Y14.914 E7.57770
G1 X3.040 Y15.285 E7.64582
G1 X1.528 Y15.510 E7.71393
G1 X-0.000 Y15.585 E7.78205
G1 X-1.528 Y15.510 E7.85016
G1 X-3.040 Y15.285 E7.91828
G1 X-4.524 Y14.914 E7.98639
G1 X-5.964 Y14.398 E8.05451
G1 X-7.347 Y13.745 E8.12262
G1 X-8.658 Y12.958 E8.19074
G1 X-9.887 Y12.047 E8.25886
G1 X-11.020 Y11.020 E8.32697
G1 X-12.047 Y9.887 E8.39509
G1 X-12.958 Y8.658 E8.46320
G1 X-13.745 Y7.347 E8.53132
G1 X-14.398 Y5.964 E8.59943
G1 X-14.914 Y4.524 E8.66755
G1 X-15.285 Y3.040 E8.73566
G1 X-15.510 Y1.528 E8.80378
G1 X-15.568 Y0.341 E8.85670
M204 S600
G1 X-15.925 Y0.358 F9000.000
M204 S100
G1 X-15.942 Y0.000 E8.87268 F3000.000
G1 X-15.865 Y-1.563 E8.94236
G1 X-15.636 Y-3.110 E9.01203
G1 X-15.256 Y-4.628 E9.08171
G1 X-14.729 Y-6.101 E9.15139
G1 X-14.060 Y-7.515 E9.22106
G1 X-13.255 Y-8.857 E9.29075
G1 X-12.324 Y-10.114 E9.36042
G1 X-11.273 Y-11.273 E9.43010
G1 X-10.114 Y-12.324 E9.49978
G1 X-8.857 Y-13.255 E9.56945
G1 X-7.515 Y-14.060 E9.63913
G1 X-6.101 Y-14.729 E9.70881
G1 X-4.628 Y-15.256 E9.77849
G1 X-3.110 Y-15.636 E9.84817
G1 X-1.563 Y-15.865 E9.91785
G1 X0.000 Y-15.942 E9.98752
G1 X1.514 Y-15.868 E10.05502
G1 X3.111 Y-15.636 E10.12691 F3000.000
G1 X4.628 Y-15.256 E10.19655
G1 X6.101 Y-14.729 E10.26623
G1 X7.515 Y-14.060 E10.33590
G1 X8.857 Y-13.255 E10.40558
G1 X10.114 Y-12.324 E10.47526
G1 X11.273 Y-11.273 E10.54494
G1 X12.324 Y-10.114 E10.61461
G1 X13.255 Y-8.857 E10.68429
G1 X14.060 Y-7.515 E10.75397
G1 X14.729 Y-6.101 E10.82365
G1 X15.256 Y-4.628 E10.89333
G1 X15.636 Y-3.110 E10.96300
G1 X15.865 Y-1.563 E11.03268
G1 X15.942 Y-0.000 E11.10236
G1 X15.865 Y1.563 E11.17204
G1 X15.636 Y3.110 E11.24172
G1 X15.256 Y4.628 E11.31139
G1 X14.729 Y6.101 E11.38107
G1 X14.060 Y7.515 E11.45075
G1 X13.255 Y8.857 E11.52043
G1 X12.324 Y10.114 E11.59011
G1 X11.273 Y11.273 E11.65978
G1 X10.114 Y12.324 E11.72946
G1 X8.857 Y13.255 E11.79914
G1 X7.515 Y14.060 E11.86882
G1 X6.101 Y14.729 E11.93850
G1 X4.628 Y15.256 E12.00817
G1 X3.110 Y15.636 E12.07785
G1 X1.563 Y15.865 E12.14753
G1 X-0.000 Y15.942 E12.21721
G1 X-1.563 Y15.865 E12.28689
G1 X-3.110 Y15.636 E12.35656
G1 X-4.628 Y15.256 E12.42624
G1 X-6.101 Y14.729 E12.49592
G1 X-7.515 Y14.060 E12.56560
G1 X-8.857 Y13.255 E12.63528
G1 X-10.114 Y12.324 E12.70495
G1 X-11.273 Y11.273 E12.77463
G1 X-12.324 Y10.114 E12.84431
G1 X-13.255 Y8.857 E12.91399
G1 X-14.060 Y7.515 E12.98367
G1 X-14.729 Y6.101 E13.05334
G1 X-15.256 Y4.628 E13.12302
G1 X-15.636 Y3.110 E13.19270
G1 X-15.865 Y1.563 E13.26238
G1 X-15.922 Y0.418 E13.31341
M204 S600
G1 X-16.278 Y0.436 F9000.000
M204 S100
G1 X-16.300 Y0.000 E13.33284 F3000.000
G1 X-16.221 Y-1.598 E13.40408
G1 X-15.987 Y-3.180 E13.47532
G1 X-15.598 Y-4.732 E13.54656
G1 X-15.059 Y-6.238 E13.61780
G1 X-14.375 Y-7.684 E13.68904
G1 X-13.553 Y-9.056 E13.76028
G1 X-12.600 Y-10.340 E13.83152
G1 X-11.526 Y-11.526 E13.90276
G1 X-10.340 Y-12.600 E13.97400
G1 X-9.056 Y-13.553 E14.04524
G1 X-7.684 Y-14.375 E14.11648
G1 X-6.238 Y-15.059 E14.18772
G1 X-4.732 Y-15.598 E14.25896
G1 X-3.180 Y-15.987 E14.33020
G1 X-1.598 Y-16.221 E14.40144
G1 X0.000 Y-16.300 E14.47268
G1 X1.548 Y-16.224 E14.54172
G1 X3.180 Y-15.987 E14.61517 F3000.000
G1 X4.732 Y-15.598 E14.68640
G1 X6.238 Y-15.059 E14.75764
G1 X7.684 Y-14.375 E14.82888
G1 X9.056 Y-13.553 E14.90012
G1 X10.340 Y-12.600 E14.97136
G1 X11.526 Y-11.526 E15.04260
G1 X12.600 Y-10.340 E15.11384
G1 X13.553 Y-9.056 E15.18508
G1 X14.375 Y-7.684 E15.25632
G1 X15.059 Y-6.238 E15.32756
G1 X15.598 Y-4.732 E15.39880
G1 X15.987 Y-3.180 E15.47004
G1 X16.221 Y-1.598 E15.54128
G1 X16.300 Y-0.000 E15.61252
G1 X16.221 Y1.598 E15.68376
G1 X15.987 Y3.180 E15.75500
G1 X15.598 Y4.732 E15.82624
G1 X15.059 Y6.238 E15.89749
G1 X14.375 Y7.684 E15.96872
G1 X13.553 Y9.056 E16.03997
G1 X12.600 Y10.340 E16.11121
G1 X11.526 Y11.526 E16.18245
G1 X10.340 Y12.600 E16.25369
G1 X9.056 Y13.553 E16.32493
G1 X7.684 Y14.375 E16.39617
G1 X6.238 Y15.059 E16.46741
G1 X4.732 Y15.598 E16.53865
G1 X3.180 Y15.987 E16.60989
G1 X1.598 Y16.221 E16.68113
G1 X-0.000 Y16.300 E16.75237
G1 X-1.598 Y16.221 E16.82361
G1 X-3.180 Y15.987 E16.89485
G1 X-4.732 Y15.598 E16.96609
